;FLAVOR:Marlin
;TIME:2179
;Filament used: 1.35678m
;Layer height: 0.2
;MINX:94.5
;MINY:82.117
;MINZ:0.2
;MAXX:141.787
;MAXY:154.014
;MAXZ:20.6
;POSTPROCESSED
;Generated with Cura_SteamEngine 5.4.0
M140 S65
M105
M190 S65
M104 S210
M105
M109 S210
M82 ;absolute extrusion mode
@TPLINKON 192.168.86.28/3
START_PRINT
G92 E0
G92 E0
G1 F1800 E-2
;LAYER_COUNT:103
;LAYER:0
M117 DASHBOARD_LAYER_INDICATOR 1
M107
G0 F9000 X101.935 Y92.175 Z0.2
;TYPE:SKIRT
G1 F1800 E0
G1 F2400 X102.795 Y91.253 E0.04194
G1 X103.462 Y90.568 E0.07374
G1 X104.175 Y89.904 E0.10614
G1 X104.945 Y89.305 E0.13859
G1 X105.772 Y88.771 E0.17133
G1 X108.443 Y87.215 E0.27414
G1 X110.571 Y85.888 E0.35755
G1 X112.704 Y84.478 E0.4426
G1 X113.557 Y83.971 E0.4756
G1 X114.444 Y83.545 E0.50833
G1 X115.594 Y83.127 E0.54903
G1 X116.269 Y82.925 E0.57246
G1 X117.783 Y82.505 E0.62472
G1 X118.733 Y82.291 E0.65711
G1 X119.699 Y82.16 E0.68953
G1 X120.671 Y82.117 E0.72189
G1 X121.643 Y82.16 E0.75425
G1 X122.606 Y82.288 E0.78656
G1 X123.43 Y82.468 E0.81462
G1 X124.134 Y82.649 E0.83879
G1 X126.645 Y83.257 E0.92472
G1 X129.21 Y83.799 E1.01192
G1 X129.694 Y83.912 E1.02845
G1 X131.071 Y84.276 E1.07582
G1 X132.055 Y84.564 E1.10992
G1 X132.975 Y84.88 E1.14228
G1 X133.865 Y85.277 E1.17469
G1 X134.715 Y85.751 E1.20706
G1 X135.492 Y86.278 E1.23829
G1 X136.245 Y86.891 E1.27058
G1 X136.811 Y87.431 E1.2966
G1 X137.345 Y87.978 E1.32202
G1 X138.337 Y89.038 E1.37031
G1 X138.945 Y89.753 E1.40153
G1 X139.528 Y90.576 E1.43507
G1 X140.018 Y91.417 E1.46744
G1 X140.403 Y92.234 E1.49748
G1 X140.807 Y93.356 E1.53715
G1 X141.199 Y94.671 E1.58279
G1 X141.394 Y95.371 E1.60696
G1 X141.609 Y96.32 E1.63932
G1 X141.742 Y97.286 E1.67175
G1 X141.787 Y98.259 E1.70415
G1 X141.752 Y99.161 E1.73417
G1 X141.57 Y100.455 E1.77763
G1 X140.917 Y103.697 E1.88763
G1 X140.493 Y106.192 E1.9718
G1 X140.149 Y108.641 E2.05406
G1 X139.861 Y111.211 E2.14007
G1 X139.652 Y113.688 E2.22275
G1 X139.516 Y116.175 E2.30559
G1 X139.448 Y118.706 E2.3898
G1 X139.45 Y119.949 E2.43114
G1 X139.436 Y120.954 E2.46457
G1 X139.355 Y122.115 E2.50328
G1 X139.263 Y122.845 E2.52775
G1 X139.048 Y124.387 E2.57954
G1 X138.773 Y126.877 E2.66286
G1 X138.561 Y129.436 E2.74826
G1 X138.522 Y130.134 E2.77151
G1 X138.424 Y131.49 E2.81673
G1 X138.359 Y132.174 E2.83959
G1 X138.228 Y133.068 E2.86964
G1 X138.062 Y133.808 E2.89486
G1 X137.846 Y134.632 E2.92319
G1 X137.568 Y135.528 E2.9544
G1 X137.21 Y136.407 E2.98596
G1 X136.842 Y137.208 E3.01528
G1 X136.413 Y138.04 E3.04642
G1 X135.969 Y138.753 E3.07435
G1 X135.673 Y139.191 E3.09194
G1 X135.265 Y139.761 E3.11525
G1 X134.687 Y140.489 E3.14617
G1 X134.286 Y140.928 E3.16594
G1 X133.924 Y141.302 E3.18326
G1 X133.461 Y141.758 E3.20487
G1 X132.733 Y142.403 E3.23722
G1 X132.253 Y142.772 E3.25736
G1 X131.413 Y143.368 E3.29161
G1 X128.608 Y145.217 E3.40335
G1 X126.526 Y146.679 E3.48797
G1 X124.537 Y148.158 E3.57041
G1 X121.503 Y150.584 E3.69961
G1 X120.635 Y151.229 E3.73558
G1 X119.929 Y151.681 E3.76346
G1 X119.43 Y151.974 E3.78271
G1 X118.387 Y152.513 E3.82176
G1 X117.702 Y152.809 E3.84658
G1 X117.208 Y153.004 E3.86424
G1 X116.072 Y153.382 E3.90406
G1 X115.386 Y153.559 E3.92762
G1 X114.834 Y153.684 E3.94645
G1 X113.654 Y153.88 E3.98623
G1 X112.839 Y153.953 E4.01345
G1 X112.145 Y153.994 E4.03657
G1 X111.612 Y154.011 E4.05431
G1 X110.851 Y154.014 E4.07962
G1 X110.125 Y154.004 E4.10377
G1 X109.463 Y153.977 E4.12581
G1 X108.542 Y153.901 E4.15654
G1 X107.269 Y153.707 E4.19937
G1 X106.589 Y153.553 E4.22256
G1 X106.053 Y153.415 E4.24097
G1 X104.921 Y153.056 E4.28047
G1 X104.242 Y152.786 E4.30477
G1 X103.726 Y152.562 E4.32348
G1 X102.708 Y152.054 E4.36132
G1 X102.027 Y151.653 E4.38761
G1 X101.546 Y151.346 E4.40659
G1 X100.655 Y150.712 E4.44296
G1 X99.999 Y150.17 E4.47126
G1 X99.534 Y149.758 E4.49192
G1 X98.865 Y149.108 E4.52295
G1 X98.386 Y148.568 E4.54696
G1 X97.934 Y148.022 E4.57053
G1 X97.278 Y147.138 E4.60714
G1 X96.825 Y146.43 E4.6351
G1 X96.556 Y145.974 E4.65271
G1 X95.998 Y144.895 E4.69311
G1 X95.707 Y144.223 E4.71747
G1 X95.504 Y143.709 E4.73585
G1 X95.12 Y142.549 E4.77649
G1 X94.956 Y141.903 E4.79866
G1 X94.832 Y141.354 E4.81738
G1 X94.635 Y140.167 E4.8574
G1 X94.567 Y139.427 E4.88211
G1 X94.512 Y138.411 E4.91595
G1 X94.5 Y137.567 E4.94403
G1 X94.51 Y136.396 E4.98298
G1 X94.549 Y135.343 E5.01802
G1 X94.623 Y132.74 E5.10464
G1 X94.623 Y130.263 E5.18702
G1 X94.558 Y128.414 E5.24856
G1 X94.502 Y125.694 E5.33904
G1 X94.511 Y124.633 E5.37433
G1 X94.538 Y123.977 E5.39617
G1 X94.62 Y123.005 E5.42862
G1 X94.795 Y121.842 E5.46773
G1 X94.99 Y120.997 E5.49658
G1 X95.846 Y117.805 E5.60649
G1 X96.438 Y115.334 E5.691
G1 X96.947 Y112.907 E5.77348
G1 X97.402 Y110.406 E5.85803
G1 X97.779 Y107.916 E5.94179
G1 X98.081 Y105.457 E6.02419
G1 X98.405 Y101.814 E6.14584
G1 X98.484 Y100.681 E6.18362
G1 X98.598 Y99.705 E6.2163
G1 X98.838 Y98.597 E6.254
G1 X99.14 Y97.505 E6.29169
G1 X99.447 Y96.49 E6.32696
G1 X99.778 Y95.555 E6.35995
G1 X100.183 Y94.67 E6.39232
G1 X100.664 Y93.824 E6.42469
G1 X101.176 Y93.08 E6.45472
G1 X101.935 Y92.175 E6.49401
G0 F9000 X102.227 Y92.448
G1 F2400 X103.082 Y91.532 E6.53569
G1 X103.735 Y90.86 E6.56685
G1 X104.421 Y90.219 E6.59808
G1 X105.162 Y89.641 E6.62933
G1 X105.973 Y89.117 E6.66145
G1 X108.644 Y87.561 E6.76426
G1 X110.792 Y86.222 E6.84845
G1 X112.925 Y84.812 E6.93349
G1 X113.731 Y84.331 E6.96471
G1 X114.581 Y83.921 E6.9961
G1 X115.709 Y83.51 E7.03603
G1 X116.376 Y83.31 E7.05919
G1 X117.872 Y82.895 E7.11083
G1 X118.787 Y82.687 E7.14204
G1 X119.717 Y82.56 E7.17325
G1 X120.654 Y82.517 E7.20445
G1 X121.591 Y82.557 E7.23564
G1 X122.521 Y82.679 E7.26684
G1 X123.33 Y82.855 E7.29438
G1 X124.04 Y83.038 E7.31877
G1 X126.551 Y83.646 E7.40469
G1 X129.119 Y84.188 E7.49199
G1 X129.592 Y84.299 E7.50815
G1 X130.959 Y84.66 E7.55517
G1 X131.925 Y84.942 E7.58864
G1 X132.813 Y85.246 E7.61986
G1 X133.671 Y85.627 E7.65109
G1 X134.491 Y86.083 E7.68229
G1 X135.239 Y86.588 E7.71231
G1 X135.992 Y87.201 E7.7446
G1 X136.525 Y87.71 E7.76912
G1 X137.053 Y88.251 E7.79426
G1 X138.032 Y89.297 E7.84191
G1 X138.64 Y90.012 E7.87313
G1 X139.183 Y90.778 E7.90436
G1 X139.656 Y91.588 E7.93555
G1 X140.041 Y92.405 E7.96559
G1 X140.424 Y93.47 E8.00324
G1 X140.814 Y94.778 E8.04863
G1 X141.004 Y95.46 E8.07218
G1 X141.213 Y96.375 E8.1034
G1 X141.342 Y97.305 E8.13463
G1 X141.387 Y98.243 E8.16586
G1 X141.352 Y99.145 E8.19588
G1 X141.178 Y100.376 E8.23723
G1 X140.525 Y103.618 E8.34723
G1 X140.099 Y106.125 E8.43181
G1 X139.751 Y108.596 E8.5148
G1 X139.463 Y111.166 E8.60082
G1 X139.254 Y113.655 E8.68389
G1 X139.116 Y116.164 E8.76747
G1 X139.048 Y118.695 E8.85168
G1 X139.05 Y119.944 E8.89322
G1 X139.037 Y120.926 E8.92589
G1 X138.958 Y122.065 E8.96386
G1 X138.867 Y122.79 E8.98816
G1 X138.65 Y124.343 E9.04032
G1 X138.375 Y126.833 E9.12364
G1 X138.163 Y129.403 E9.20941
G1 X138.123 Y130.105 E9.2328
G1 X138.026 Y131.452 E9.27771
G1 X137.963 Y132.116 E9.2999
G1 X137.832 Y133.01 E9.32995
G1 X137.675 Y133.707 E9.35371
G1 X137.464 Y134.513 E9.38142
G1 X137.186 Y135.409 E9.41263
G1 X136.847 Y136.24 E9.44248
G1 X136.486 Y137.025 E9.47121
G1 X136.057 Y137.857 E9.50235
G1 X135.638 Y138.529 E9.52869
G1 X135.348 Y138.958 E9.54591
G1 X134.952 Y139.512 E9.56856
G1 X134.391 Y140.219 E9.59858
G1 X133.998 Y140.65 E9.61798
G1 X133.643 Y141.017 E9.63496
G1 X133.18 Y141.473 E9.65658
G1 X132.489 Y142.086 E9.6873
G1 X132.022 Y142.446 E9.70691
G1 X131.193 Y143.034 E9.74071
G1 X128.388 Y144.883 E9.85245
G1 X126.287 Y146.358 E9.93784
G1 X124.298 Y147.837 E10.02027
G1 X121.264 Y150.263 E10.14948
G1 X120.396 Y150.908 E10.18545
G1 X119.726 Y151.336 E10.21189
G1 X119.246 Y151.619 E10.23042
G1 X118.228 Y152.146 E10.26855
G1 X117.555 Y152.437 E10.29294
G1 X117.061 Y152.632 E10.3106
G1 X115.972 Y152.995 E10.34878
G1 X115.298 Y153.169 E10.37193
G1 X114.768 Y153.289 E10.39001
G1 X113.588 Y153.485 E10.42979
G1 X112.816 Y153.554 E10.45557
G1 X112.132 Y153.594 E10.47836
G1 X111.61 Y153.611 E10.49573
G1 X110.857 Y153.614 E10.52078
G1 X110.141 Y153.604 E10.54459
G1 X109.496 Y153.578 E10.56606
G1 X108.575 Y153.502 E10.5968
G1 X107.357 Y153.317 E10.63777
G1 X106.688 Y153.166 E10.66059
G1 X106.174 Y153.034 E10.67824
G1 X105.069 Y152.684 E10.71679
G1 X104.401 Y152.419 E10.74069
G1 X103.905 Y152.204 E10.75867
G1 X102.887 Y151.696 E10.79651
G1 X102.242 Y151.315 E10.82143
G1 X101.778 Y151.02 E10.83971
G1 X100.887 Y150.386 E10.87609
G1 X100.264 Y149.871 E10.90297
G1 X99.813 Y149.471 E10.92302
G1 X99.144 Y148.821 E10.95404
G1 X98.694 Y148.313 E10.97662
G1 X98.255 Y147.783 E10.99951
G1 X97.615 Y146.922 E11.03519
G1 X97.17 Y146.227 E11.06264
G1 X96.901 Y145.771 E11.08025
G1 X96.365 Y144.736 E11.11901
G1 X96.079 Y144.076 E11.14294
G1 X95.884 Y143.583 E11.16057
G1 X95.508 Y142.45 E11.20027
G1 X95.346 Y141.815 E11.22207
G1 X95.227 Y141.289 E11.24001
G1 X95.03 Y140.102 E11.28003
G1 X94.966 Y139.405 E11.30331
G1 X94.912 Y138.405 E11.33662
G1 X94.9 Y137.57 E11.36439
G1 X94.91 Y136.411 E11.40294
G1 X94.949 Y135.358 E11.43799
G1 X95.023 Y132.751 E11.52473
G1 X95.023 Y130.263 E11.60748
G1 X94.958 Y128.406 E11.66928
G1 X94.902 Y125.697 E11.75941
G1 X94.911 Y124.649 E11.79426
G1 X94.937 Y124.01 E11.81553
G1 X95.016 Y123.065 E11.84707
G1 X95.191 Y121.902 E11.88619
G1 X95.376 Y121.101 E11.91353
G1 X96.232 Y117.909 E12.02345
G1 X96.827 Y115.427 E12.10834
G1 X97.341 Y112.978 E12.19157
G1 X97.795 Y110.477 E12.27611
G1 X98.176 Y107.965 E12.36062
G1 X98.478 Y105.506 E12.44302
G1 X98.804 Y101.842 E12.56537
G1 X98.881 Y100.727 E12.60254
G1 X98.989 Y99.79 E12.63391
G1 X99.229 Y98.682 E12.67162
G1 X99.523 Y97.621 E12.70824
G1 X99.824 Y96.623 E12.74291
G1 X100.142 Y95.721 E12.77472
G1 X100.531 Y94.867 E12.80593
G1 X100.994 Y94.051 E12.83714
G1 X101.506 Y93.307 E12.86717
G1 X102.227 Y92.448 E12.90447
G0 F9000 X102.519 Y92.721
G1 F2400 X103.369 Y91.811 E12.94589
G1 X104.009 Y91.152 E12.97644
G1 X104.668 Y90.534 E13.00649
G1 X105.379 Y89.977 E13.03653
G1 X106.174 Y89.463 E13.06802
G1 X108.845 Y87.907 E13.17083
G1 X111.013 Y86.556 E13.2558
G1 X113.131 Y85.155 E13.34026
G1 X113.905 Y84.691 E13.37027
G1 X114.718 Y84.297 E13.40032
G1 X115.824 Y83.893 E13.43949
G1 X116.483 Y83.695 E13.46237
G1 X117.961 Y83.285 E13.51339
G1 X118.841 Y83.083 E13.54342
G1 X119.736 Y82.96 E13.57346
G1 X120.638 Y82.917 E13.6035
G1 X121.54 Y82.954 E13.63352
G1 X122.436 Y83.07 E13.66357
G1 X123.23 Y83.242 E13.6906
G1 X123.946 Y83.427 E13.71519
G1 X126.457 Y84.035 E13.80112
G1 X129.027 Y84.577 E13.88848
G1 X129.49 Y84.686 E13.9043
G1 X130.847 Y85.044 E13.95098
G1 X131.796 Y85.321 E13.98386
G1 X132.651 Y85.612 E14.0139
G1 X133.477 Y85.977 E14.04393
G1 X134.267 Y86.415 E14.07398
G1 X135.015 Y86.92 E14.104
G1 X135.716 Y87.49 E14.13405
G1 X136.239 Y87.989 E14.15809
G1 X136.761 Y88.524 E14.18295
G1 X137.728 Y89.557 E14.23001
G1 X138.314 Y90.244 E14.26005
G1 X138.838 Y90.98 E14.2901
G1 X139.294 Y91.759 E14.32012
G1 X139.679 Y92.576 E14.35016
G1 X140.041 Y93.584 E14.38578
G1 X140.429 Y94.885 E14.43093
G1 X140.614 Y95.55 E14.45389
G1 X140.817 Y96.43 E14.48393
G1 X140.942 Y97.325 E14.51399
G1 X140.987 Y98.227 E14.54402
G1 X140.952 Y99.129 E14.57405
G1 X140.786 Y100.297 E14.61329
G1 X140.133 Y103.539 E14.72328
G1 X139.705 Y106.058 E14.80826
G1 X139.353 Y108.551 E14.892
G1 X139.065 Y111.121 E14.97802
G1 X138.856 Y113.622 E15.06149
G1 X138.716 Y116.153 E15.1458
G1 X138.648 Y118.684 E15.23001
G1 X138.65 Y119.939 E15.27175
G1 X138.638 Y120.898 E15.30365
G1 X138.561 Y122.015 E15.34089
G1 X138.471 Y122.735 E15.36503
G1 X138.252 Y124.299 E15.41755
G1 X137.977 Y126.789 E15.50087
G1 X137.765 Y129.37 E15.58701
G1 X137.724 Y130.076 E15.61053
G1 X137.628 Y131.414 E15.65515
G1 X137.567 Y132.058 E15.67666
G1 X137.436 Y132.952 E15.70671
G1 X137.288 Y133.606 E15.72902
G1 X137.082 Y134.395 E15.75614
G1 X136.816 Y135.258 E15.78617
G1 X136.483 Y136.073 E15.81546
G1 X136.13 Y136.842 E15.8436
G1 X135.717 Y137.646 E15.87366
G1 X135.307 Y138.305 E15.89948
G1 X135.022 Y138.726 E15.91639
G1 X134.639 Y139.263 E15.93832
G1 X134.078 Y139.97 E15.96834
G1 X133.71 Y140.372 E15.98647
G1 X133.362 Y140.732 E16.00312
G1 X132.899 Y141.188 E16.02474
G1 X132.224 Y141.787 E16.05475
G1 X131.79 Y142.12 E16.07295
G1 X130.973 Y142.7 E16.10627
G1 X128.168 Y144.549 E16.21801
G1 X126.048 Y146.037 E16.30416
G1 X124.059 Y147.516 E16.3866
G1 X121.025 Y149.942 E16.5158
G1 X120.157 Y150.587 E16.55177
G1 X119.522 Y150.992 E16.57682
G1 X119.062 Y151.264 E16.59459
G1 X118.044 Y151.791 E16.63272
G1 X117.408 Y152.065 E16.65575
G1 X116.934 Y152.253 E16.67271
G1 X115.872 Y152.608 E16.70996
G1 X115.21 Y152.779 E16.7327
G1 X114.702 Y152.894 E16.75002
G1 X113.522 Y153.09 E16.78981
G1 X112.793 Y153.155 E16.81415
G1 X112.119 Y153.194 E16.8366
G1 X111.608 Y153.211 E16.85361
G1 X110.863 Y153.214 E16.87839
G1 X110.157 Y153.204 E16.90187
G1 X109.529 Y153.179 E16.92278
G1 X108.608 Y153.103 E16.95351
G1 X107.445 Y152.927 E16.99264
G1 X106.787 Y152.779 E17.01507
G1 X106.295 Y152.653 E17.03196
G1 X105.216 Y152.312 E17.0696
G1 X104.56 Y152.052 E17.09307
G1 X104.083 Y151.846 E17.11035
G1 X103.09 Y151.351 E17.14725
G1 X102.456 Y150.977 E17.17173
G1 X102.01 Y150.694 E17.1893
G1 X101.119 Y150.06 E17.22567
G1 X100.529 Y149.572 E17.25114
G1 X100.091 Y149.184 E17.2706
G1 X99.443 Y148.556 E17.30061
G1 X99.002 Y148.058 E17.32274
G1 X98.576 Y147.544 E17.34494
G1 X97.936 Y146.683 E17.38063
G1 X97.514 Y146.023 E17.40668
G1 X97.256 Y145.587 E17.42353
G1 X96.732 Y144.577 E17.46138
G1 X96.451 Y143.928 E17.4849
G1 X96.264 Y143.457 E17.50175
G1 X95.896 Y142.351 E17.54052
G1 X95.736 Y141.726 E17.56198
G1 X95.622 Y141.224 E17.5791
G1 X95.425 Y140.037 E17.61912
G1 X95.365 Y139.384 E17.64093
G1 X95.312 Y138.399 E17.67374
G1 X95.3 Y137.573 E17.70122
G1 X95.31 Y136.426 E17.73937
G1 X95.349 Y135.373 E17.77441
G1 X95.423 Y132.762 E17.86129
G1 X95.423 Y130.263 E17.94441
G1 X95.358 Y128.398 E18.00647
G1 X95.302 Y125.7 E18.09623
G1 X95.311 Y124.665 E18.13066
G1 X95.336 Y124.043 E18.15136
G1 X95.412 Y123.125 E18.182
G1 X95.587 Y121.962 E18.22111
G1 X95.762 Y121.205 E18.24696
G1 X96.618 Y118.013 E18.35687
G1 X97.216 Y115.52 E18.44214
G1 X97.735 Y113.049 E18.52612
G1 X98.188 Y110.548 E18.61066
G1 X98.573 Y108.014 E18.69591
G1 X98.875 Y105.555 E18.77831
G1 X99.202 Y101.877 E18.90112
G1 X99.278 Y100.772 E18.93796
G1 X99.38 Y99.875 E18.96799
G1 X99.62 Y98.767 E19.0057
G1 X99.906 Y97.737 E19.04125
G1 X100.207 Y96.739 E19.07592
G1 X100.506 Y95.886 E19.10598
G1 X100.879 Y95.064 E19.13601
G1 X101.324 Y94.278 E19.16605
G1 X101.836 Y93.534 E19.19609
G1 X102.519 Y92.721 E19.2314
G1 F1800 E17.2314
G0 F9000 X110.143 Y99.781
G1 F1800 E19.2314
G1 F2400 X111.414 Y98.442 E19.29281
G1 X113.167 Y97.95 E19.35336
G1 X114.92 Y98.442 E19.41392
G1 X116.191 Y99.781 E19.47533
G1 X116.68 Y101.46 E19.53349
G1 X116.188 Y103.217 E19.59418
G1 X114.922 Y104.483 E19.65373
G1 X113.165 Y104.975 E19.71441
G1 X111.486 Y104.484 E19.77259
G1 X110.145 Y103.143 E19.83567
G1 X109.652 Y101.462 E19.89394
G1 X110.143 Y99.781 E19.95218
G0 F9000 X110.5 Y99.985
G1 F2400 X111.628 Y98.797 E20.00667
G1 X113.167 Y98.365 E20.05983
G1 X114.706 Y98.797 E20.113
G1 X115.834 Y99.985 E20.16749
G1 X116.264 Y101.462 E20.21865
G1 X115.831 Y103.008 E20.27205
G1 X114.713 Y104.126 E20.32464
G1 X113.168 Y104.559 E20.37801
G1 X111.697 Y104.129 E20.42898
G1 X110.5 Y102.932 E20.48528
G1 X110.069 Y101.461 E20.53626
G1 X110.5 Y99.985 E20.58741
G0 F9000 X110.857 Y100.19
G1 F2400 X111.841 Y99.153 E20.63495
G1 X113.167 Y98.781 E20.68076
G1 X114.493 Y99.153 E20.72656
G1 X115.476 Y100.189 E20.77406
G1 X115.848 Y101.465 E20.81827
G1 X115.474 Y102.799 E20.86435
G1 X114.504 Y103.769 E20.90998
G1 X113.171 Y104.143 E20.95602
G1 X111.908 Y103.774 E20.99979
G1 X110.855 Y102.721 E21.04932
G1 X110.486 Y101.46 E21.09302
G1 X110.857 Y100.19 E21.13702
G0 F9000 X111.214 Y100.396
G1 F2400 X112.057 Y99.508 E21.17775
G1 X113.167 Y99.196 E21.2161
G1 X114.277 Y99.508 E21.25445
G1 X115.12 Y100.396 E21.29517
G1 X115.432 Y101.467 E21.33227
G1 X115.118 Y102.589 E21.37103
G1 X114.294 Y103.413 E21.40978
G1 X113.174 Y103.727 E21.44847
G1 X112.118 Y103.418 E21.48507
G1 X111.211 Y102.511 E21.52773
G1 X110.903 Y101.46 E21.56416
